docs/img/logos-quality/ukrsepro-logo.svg

<svg xmlns="http://www.w3.org/2000/svg" xml:space="preserve" id="Laag_1" x="0" y="0" style="enable-background:new 0 0 1804.7 1804.7" version="1.1" viewBox="0 0 1804.7 1804.7"><style>.st2,.st3{fill:#f8e11c;stroke:#2683f1;stroke-width:2.2;stroke-linejoin:bevel}.st3{fill:#2683f1}</style><path d="M902.3 1804.7C404 1804.7 0 1400.7 0 902.3S404 0 902.3 0s902.3 404 902.3 902.3-403.9 902.4-902.3 902.4z" style="fill:none"/><path d="M1492.7 334C1343.6 179.2 1134.2 82.9 902.3 82.9c-452.6 0-819.4 366.9-819.4 819.4s366.9 819.4 819.4 819.4c231.4 0 440.5-96 589.5-250.2l59.6 57.6c-4.9 5-8.6 8.8-11.1 11.3-352.4 352.4-923.7 352.4-1276.1 0s-352.4-923.7 0-1276.1 923.7-352.4 1276.1 0c4 4.1 8 8.1 12 12.3l-59.6 57.4z" style="fill:#2683f1"/><path d="M904.2 1227.1V284.4l177 655.9-177 286.8z" class="st2"/><path d="M904.2 1227.1V284.4l-177 655.9 177 286.8zm0 0 640.5-463.5-463.4 176.8-177.1 286.7z" class="st3"/><path d="m904.2 1227.1 640.5-463.5-640.5 755.2v-291.7z" class="st2"/><path d="M904.2 1227.1 263.7 763.6l640.5 755.2v-291.7z" class="st3"/><path d="M904.2 1227.1 263.7 763.6l463.4 176.8 177.1 286.7z" class="st2"/></svg>

<?xml version="1.0" encoding="utf-8"?>
<!-- Generator: Adobe Illustrator 22.1.0, SVG Export Plug-In . SVG Version: 6.00 Build 0)  -->
<svg version="1.1" id="Laag_1" xmlns="http://www.w3.org/2000/svg" xmlns:xlink="http://www.w3.org/1999/xlink" x="0px" y="0px"
	 viewBox="0 0 1804.7 1804.7" style="enable-background:new 0 0 1804.7 1804.7;" xml:space="preserve">
<style type="text/css">
	.st0{fill:none;}
	.st1{fill:#2683F1;}
	.st2{fill:#F8E11C;stroke:#2683F1;stroke-width:2.2;stroke-linejoin:bevel;}
	.st3{fill:#2683F1;stroke:#2683F1;stroke-width:2.2;stroke-linejoin:bevel;}
</style>
<g>
	<path class="st0" d="M902.3,1804.7C404,1804.7,0,1400.7,0,902.3S404,0,902.3,0s902.3,404,902.3,902.3S1400.7,1804.7,902.3,1804.7z"
		/>
	<path class="st1" d="M1492.7,334C1343.6,179.2,1134.2,82.9,902.3,82.9c-452.6,0-819.4,366.9-819.4,819.4s366.9,819.4,819.4,819.4
		c231.4,0,440.5-96,589.5-250.2l59.6,57.6c-4.9,5-8.6,8.8-11.1,11.3c-352.4,352.4-923.7,352.4-1276.1,0s-352.4-923.7,0-1276.1
		s923.7-352.4,1276.1,0c4,4.1,8,8.1,12,12.3L1492.7,334z"/>
	<g>
		<path class="st2" d="M904.2,1227.1V284.4l177,655.9L904.2,1227.1z"/>
		<path class="st3" d="M904.2,1227.1V284.4l-177,655.9L904.2,1227.1z M904.2,1227.1l640.5-463.5l-463.4,176.8L904.2,1227.1z"/>
		<path class="st2" d="M904.2,1227.1l640.5-463.5l-640.5,755.2V1227.1z"/>
		<path class="st3" d="M904.2,1227.1L263.7,763.6l640.5,755.2V1227.1z"/>
		<path class="st2" d="M904.2,1227.1L263.7,763.6l463.4,176.8L904.2,1227.1z"/>
	</g>
</g>
</svg>
